X:1
T:James Gibb editions
T:He that goeth forth with weeping - Barnby
%%score [ ( 1 2 ) ( 3 4 ) ]
L:1/8
Q:1/4=112
M:3/2
K:F
V:1 treble nm="Midi_74"
V:2 treble 
V:3 bass nm="Midi_74"
V:4 bass 
V:1
"^87. 87. D""^Thomas Hastings\n(1784-1872)""^He that goeth forth with weeping""^Joseph Barnby\n(1838-96)" A2 A2 B2 A2 d2 c2 | %1
 (c2 B2) A8 || A2 A2 A2 c2 =B2 ^G2 | A12 || A2 A2 B2 A2 d2 c2 | (c2 B2) A8 || A2 B2 A2 F2 G3 F | %7
 F12 || G2 G2 c2 =B2 d2 c2 | (e4 d4) c4 || A2 =B2 c2 c2 d2 d2 |!<(! e12!<)! || %12
!f! f2 e2 d2 c2 =B2 _B2 |!<(! (A4!<)!!>(! c4) B4!>)! ||"^rit." A2 !courtesy!=F2 B2"^dim." A2 G3 A | %15
 F12 || F12 | F12 |] %18
V:2
 F2 F2 G2 F2 F2 E2 | (F2 G2) F8 || C2 F2 E2 E2 E2 D2 | C12 || F2 F2 F2 F2 F2 F2 | (E2 D2) ^C8 || %6
 D2 D2 C2 F2 E3 F | F12 || E2 E2 G2 G2 G2 G2 | G8 G4 || F2 F2 E2 A2 A2 A2 | (A4 ^G4 =G4) || %12
 F2 A2 B2 A2 _A2 G2 | (F4 ^F4) G4 || !courtesy!=F2 D2 D2 D2 E2 E2 | F12 || D12 | C12 |] %18
V:3
!mp!!mp! C2 C2 C2 C2 B,2 G,2 | (F,2 C2) C8 || A,2 =B,2 C2 A,2 ^G,2 B,2 | A,12 || %4
 C2 C2 F,2 A,2 B,2 F,2 | G,4 E,8 || F,2 F,2 F,2 A,2 B,3 A, | A,12 || C2"^cresc." C2 C2 D2 =B,2 C2 | %9
 (C4 =B,4) C4 || C2 D2 C2 E2 D2 A,2 | (=B,8 _B,4) || %12
!f! A,2 C2 B,2 C2 D2"^1 He that goest forth with weeping,\nBearing still the precious seed,\nNever tiring, never sleeping,\nSoon shall see thy toil succeed.\nShowers of rain will fall from heaven,\nThen the cheering sun will shine;\nSo shall plenteous fruit be given,\nThrough an influence all divine.\n\n2 Sow thy seed, be never weary,\nLet not fear thy mind employ;\nThough the prospect be most dreary,\nThou mayst reap the fruits of joy.\nLo! the scene of verdure brightening,\nSee the rising grain appear;\nLook again! The fields are whitening;\nHarvest-time is surely near." E2 | %13
 (F4 _E4) D4 || C2 A,2 B,2 C2 B,2 B,2 | [F,A,]12 || B,12 | A,12 |] %18
V:4
 F,2 F,2 E,2 F,2 B,,2 C,2 | (D,2 E,2) F,8 || F,2 D,2 E,2 E,2 E,2 E,2 | A,12 || %4
 F,2 E,2 D,2 C,2 B,,2 A,,2 | G,,4 A,,8 || D,2 B,,2 C,2 C,2 C,2 C,2 | F,12 || %8
 C,2 C,2 E,2 D,2 F,2 E,2 | (G,4 F,4) E,4 || F,2 D,2 A,2 A,2 F,2 F,2 | (E,8 C,4) || %12
 F,2 F,2 F,2 F,2 F,2 F,2 | (F,4 A,,4) B,,4 || C,2 D,2 G,,2 G,,2 C,2 C,2 | F,,12 || B,,12 | F,12 |] %18

